!!!OTL: Der Schweizermann (205a), S. 447
!!!id: T0389
**kern
*clefG2
*k[f#]
*G:
{4d
=1
8g
8g
8g
8g
=2
4g
4a
=3
4g
4d
=4
4d}
4r
=5
{4a
4a
=6
4a
4cc
=7
8b
8g
8g
8g
=8
8a
8g
8g
8g
=9
8a
8g
8f#
8e
=10
8d
8d
8d
8d
=11
4g}
4r
=12
{4d
8d
8d
=13
4g
4r
=14
4d
8d
8d
=15
4g}
4r
=16
{4g
4b
=17
4dd
4r
=18
4b
8dd
8b
=19
4b
4b
=20
4a
8a
8a
=21
4g}
==
*-
!!!minrhy: 8
!!!meters: 2/4 ]  ZZ[7
!!!cut: Der Schweizermann (205a), S. 447
!!!reg: Luxemburg
!!!trd: Singendes Volk, Esch-Alzette, 1937 posth.
!!!rhy1: X_  XXXX  X_X_  X_X_  X_0_
!!!rhy2: X_X_  X_X_  XXXX  XXXX  XXXX  XXXX  X_0_
!!!key: T0389  08  G 2/4 ]  ZZ[7
!!!mod: HEPTATONIK IONISCH]  AMBITUS[8
!!!kad: -5111531
!!!akz: 111-5_22322-51_-51_-51_15_33_21_
!!!fot: 'a__b__c__c__d__e__f__
!!!for: 'a__b__c__c__bw_cv_cv_
!!!fok: '^__~d_/__/__/__^__\__
!! PHRAS[VORWIEGEND VOLLTAKTIG]
!!!fkt: Tanz-, Spiellied
!!!bem1: Heffingen, fff Nikolaus Ewen, 29.8.1934
!!!bem2: (205b)- StraPen, fff Witry, Liederheft um 1850
!! THILL; Mathias
!! PR[33] 2K[1] 2G[5] 3K[11] 3G[6] 4A[6] 4Ü[0] 5A[2] 6K[0] 6G[0]
!! 7K[0] 7G[0] 8A[0] MEHR[0] SI[31] ABS[83] SR[6] SP[25]
!! ST[24] 2k[4] 2g[10] 3k[10] 3g[4] 4d[5] 4ü[1] 5d[4] 6k[0] 6g[0]
!! 7k[0] 7g[0] 8d[0] mehr[0] si[36] dm[-5] sr[13] sp[23]
!! 1F[92] 2F[8] 3F[0] 4F[0] LF[0] 2P[0] 3P[0] 4P[0] TRI[0] DF[2] AB[90]
!! TF[0] U3K[0] U3[0] U4[0] U4Ü[0] U5[0] U6K[0] U6[0] U7K[0] U7[0]
!! N1[13] N2K[0] N2[10] N3K[0] N3[19] N4[5] N4Ü[0] N5[32] N6K[0] N6[12]
!!!n7k: 0] N7[4] O1[6] O2K[0] O2[0] O3K[0] O3[0] HÖ[0
